X:298
T:no name
R:jig
Z:id:hn-jig-298
M:6/8
K:D
~d3 faf|gec Ace|~d3 AFA|=cBc EFG|
~d3 faf|gec Ace|~d3 AFA|GEA D3:|
|:~d3 ~a3|~g3 ~a3|~d3 ~a3|gef gfe|
def ecA|GEG AFA|def ecA|GEA D3:|
